assets/images/concept-arrow.svg

<svg display="block" fill="none" preserveAspectRatio="none" viewBox="0 0 626.025 148.208" xmlns="http://www.w3.org/2000/svg"><g fill="#009f89"><path d="m1.23072 1.52422c-2.58899 4.69507-.275998 9.49108-.359005 14.63108-.104981 6.328.781005 12.012 3.343015 17.835 2.42896 5.524 5.24695 11.048 7.97997 16.4349 2.662 5.2531 6.333 8.7211 10.4931 12.7821 4.1429 4.0459 6.9229 9.0929 11.604 12.6179 5.0479 3.8011 10.8349 7.0251 16.5189 9.7571 5.732 2.753 11.706 4.466 17.687 6.536 6.508 2.25 11.938 4.3009 18.859 4.455 2.881.064 5.51 1.158 8.348 1.548 2.924.4019 5.8183.139 8.7093.823 6.462 1.5297 12.434 1.3467 19.094 1.3457 6.953-.002 13.937.212 20.884-.057 7.099-.2737 13.762-2.2707 20.897-2.0647 6.442.185 12.033-1.5771 18.359-2.247 6.802-.7211 13.692-.193 20.496.1749 14.432.7801 28.945.3481 43.395.354 8.487.0041 16.311.735 24.564 2.8461 7.306 1.8677 14.737 3.5967 20.584 8.6597 10.811 9.361 16.634 23.109 17.077 37.269.124 3.969 6.307 3.986 6.182 0-.356-11.401-3.686-22.66-10.312-32.024-6.887-9.733-15.566-15.4837-26.999-18.5817-5.877-1.593-11.792-3.155-17.85-3.8821-6.987-.838-14.12-.4709-21.146-.4699-14.152 0-28.221-.126-42.359-.713-5.908-.245-11.855-.2751-17.703.724-3.038.519-5.929 1.583-9.023 1.7669-4.088.2431-8.175-.4149-12.264-.0389-2.643.243-5.127 1.061-7.736 1.498-3.807.638-7.696.601-11.543.611-7.118.0179-14.241-.116-21.358-.002-3.618.059-6.755.138-10.297-.755-2.01-.5071-3.925-.9911-5.996-1.1321-3.4783-.2359-6.4653-.6879-9.8583-1.416-3.3299-.7149-6.641.0431-9.962-.7039-6.105-1.3741-12.23-4.1031-18.1799-6.063-6.9241-2.282-13.2801-5.642-19.526-9.355-5.9671-3.548-9.7021-7.724-14.1131-12.984-2.345-2.798-5.26-4.9671-7.725-7.637-2.244-2.428-3.728-5.223-5.156-8.182-3.034-6.2831-7.09103-12.874-8.87997-19.62-.99304-3.7361-.896-7.209-.88501-11.031.01001-2.623-1.75098-8.33105-.50501-10.59008 1.922-3.48596-3.41504-6.60791-5.33899-3.12z"/><path d="m619.394 4.64421c1.139 2.06409-.451 6.40309-.518 8.73799-.087 2.9661.263 5.9291-.078 8.8891-.812 7.0539-4.755 12.969-7.669 19.264-2.572 5.557-4.859 10.4209-9.386 14.673-4.546 4.27-7.932 9.8729-12.661 13.84-10.084 8.461-22.802 12.311-34.894 16.6989-3.22 1.1681-6.41 2.604-9.765 3.359-2.805.631-5.496.0611-8.298.412-3.4.4261-6.434 1.5231-9.912 1.6811-2.669.1209-5.003.5019-7.605 1.159-6.367 1.606-13.508.747-20.056.75-7.608.0039-15.616.657-23.143-.604-2.608-.437-5.092-1.2561-7.736-1.498-3.51-.323-7.003.133-10.514.0739-6.12-.1009-12.014-2.2769-18.181-2.583-13.507-.671-27.264.776-40.807.772-14.154-.0039-28.574-1.0749-42.454 2.1941-13.133 3.0919-24.36 6.839-33.082 17.6807-8.038 9.993-12.219 22.318-12.618 35.081-.125 3.979 6.057 3.975 6.182 0 .403-12.89 5.211-25.416 14.328-34.674 9.116-9.258 24.687-12.8697 37.327-13.9018 15.107-1.2319 30.563.0501 45.716-.209 6.196-.1049 12.373-.692 18.569-.8209 2.837-.0591 5.685-.058 8.517.1599 4.191.322 8.064 1.641 12.19 2.2051 6.454.8829 12.716-.1061 19.181 1.14 6.842 1.3187 13.729 1.1727 20.67 1.1697 6.819-.003 13.671.253 20.484.13 2.538-.046 4.634-.4597 7.071-1.1047 3.363-.8901 6.595-.729 10.006-1.198 2.83-.3891 5.477-1.484 8.348-1.548 3.27-.073 5.921-.033 9.112-.962 6.662-1.939 13.48-4.366 19.96-6.824 10.509-3.986 22.72-9.799 29.863-18.77 4.066-5.1081 9.43-9.224 13.219-14.471 3.881-5.374 6.155-11.9551 9.189-17.8191 3.078-5.9509 5.097-12.099 5.199-18.849.057-3.7649.094-7.1499.689-10.87498.414-2.59497.19-4.13196-1.105-6.47901-1.922-3.48388-7.263-.36999-5.338 3.12z"/></g></svg>

<svg preserveAspectRatio="none" width="100%" height="100%" overflow="visible" style="display: block;" viewBox="0 0 626.025 148.208" fill="none" xmlns="http://www.w3.org/2000/svg">
<g id="&#227;&#130;&#176;&#227;&#131;&#171;&#227;&#131;&#188;&#227;&#131;&#151; 105">
<path id="&#227;&#131;&#145;&#227;&#130;&#185; 142" d="M1.23072 1.52422C-1.35827 6.21929 0.954722 11.0153 0.871715 16.1553C0.766734 22.4833 1.65272 28.1673 4.21473 33.9903C6.64369 39.5143 9.46168 45.0383 12.1947 50.4252C14.8567 55.6783 18.5277 59.1463 22.6878 63.2073C26.8307 67.2532 29.6107 72.3002 34.2918 75.8252C39.3397 79.6263 45.1267 82.8503 50.8107 85.5823C56.5427 88.3353 62.5167 90.0483 68.4977 92.1183C75.0057 94.3683 80.4357 96.4192 87.3567 96.5733C90.2377 96.6373 92.8667 97.7313 95.7047 98.1213C98.6287 98.5232 101.523 98.2603 104.414 98.9443C110.876 100.474 116.848 100.291 123.508 100.29C130.461 100.288 137.445 100.502 144.392 100.233C151.491 99.9593 158.154 97.9623 165.289 98.1683C171.731 98.3533 177.322 96.5912 183.648 95.9213C190.45 95.2002 197.34 95.7283 204.144 96.0962C218.576 96.8763 233.089 96.4443 247.539 96.4502C256.026 96.4543 263.85 97.1852 272.103 99.2963C279.409 101.164 286.84 102.893 292.687 107.956C303.498 117.317 309.321 131.065 309.764 145.225C309.888 149.194 316.071 149.211 315.946 145.225C315.59 133.824 312.26 122.565 305.634 113.201C298.747 103.468 290.068 97.7173 278.635 94.6193C272.758 93.0263 266.843 91.4643 260.785 90.7372C253.798 89.8992 246.665 90.2663 239.639 90.2673C225.487 90.2673 211.418 90.1413 197.28 89.5543C191.372 89.3093 185.425 89.2792 179.577 90.2783C176.539 90.7973 173.648 91.8613 170.554 92.0452C166.466 92.2883 162.379 91.6303 158.29 92.0063C155.647 92.2493 153.163 93.0673 150.554 93.5043C146.747 94.1423 142.858 94.1053 139.011 94.1153C131.893 94.1332 124.77 93.9993 117.653 94.1133C114.035 94.1723 110.898 94.2513 107.356 93.3583C105.346 92.8512 103.431 92.3672 101.36 92.2262C97.8817 91.9903 94.8947 91.5383 91.5017 90.8102C88.1718 90.0953 84.8607 90.8533 81.5397 90.1063C75.4347 88.7322 69.3097 86.0032 63.3598 84.0433C56.4357 81.7613 50.0797 78.4013 43.8338 74.6883C37.8667 71.1403 34.1317 66.9643 29.7207 61.7043C27.3757 58.9063 24.4607 56.7372 21.9957 54.0673C19.7517 51.6393 18.2677 48.8443 16.8397 45.8853C13.8057 39.6022 9.74867 33.0113 7.95973 26.2653C6.96669 22.5292 7.06373 19.0563 7.07472 15.2343C7.08473 12.6113 5.32374 6.90325 6.56971 4.64422C8.49171 1.15826 3.15467 -1.96369 1.23072 1.52422Z" fill="#009F89"/>
<path id="&#227;&#131;&#145;&#227;&#130;&#185; 143" d="M619.394 4.64421C620.533 6.7083 618.943 11.0473 618.876 13.3822C618.789 16.3483 619.139 19.3113 618.798 22.2713C617.986 29.3252 614.043 35.2403 611.129 41.5353C608.557 47.0923 606.27 51.9562 601.743 56.2083C597.197 60.4783 593.811 66.0812 589.082 70.0483C578.998 78.5093 566.28 82.3593 554.188 86.7472C550.968 87.9153 547.778 89.3512 544.423 90.1062C541.618 90.7372 538.927 90.1673 536.125 90.5182C532.725 90.9443 529.691 92.0413 526.213 92.1993C523.544 92.3202 521.21 92.7012 518.608 93.3583C512.241 94.9643 505.1 94.1053 498.552 94.1083C490.944 94.1122 482.936 94.7653 475.409 93.5043C472.801 93.0673 470.317 92.2482 467.673 92.0063C464.163 91.6833 460.67 92.1393 457.159 92.0802C451.039 91.9793 445.145 89.8033 438.978 89.4972C425.471 88.8262 411.714 90.2732 398.171 90.2692C384.017 90.2653 369.597 89.1943 355.717 92.4633C342.584 95.5552 331.357 99.3023 322.635 110.144C314.597 120.137 310.416 132.462 310.017 145.225C309.892 149.204 316.074 149.2 316.199 145.225C316.602 132.335 321.41 119.809 330.527 110.551C339.643 101.293 355.214 97.6813 367.854 96.6492C382.961 95.4173 398.417 96.6993 413.57 96.4402C419.766 96.3353 425.943 95.7482 432.139 95.6193C434.976 95.5602 437.824 95.5613 440.656 95.7792C444.847 96.1012 448.72 97.4202 452.846 97.9843C459.3 98.8672 465.562 97.8782 472.027 99.1243C478.869 100.443 485.756 100.297 492.697 100.294C499.516 100.291 506.368 100.547 513.181 100.424C515.719 100.378 517.815 99.9643 520.252 99.3193C523.615 98.4292 526.847 98.5903 530.258 98.1213C533.088 97.7322 535.735 96.6373 538.606 96.5733C541.876 96.5003 544.527 96.5403 547.718 95.6113C554.38 93.6723 561.198 91.2453 567.678 88.7873C578.187 84.8013 590.398 78.9883 597.541 70.0173C601.607 64.9092 606.971 60.7933 610.76 55.5463C614.641 50.1723 616.915 43.5912 619.949 37.7272C623.027 31.7763 625.046 25.6282 625.148 18.8782C625.205 15.1133 625.242 11.7283 625.837 8.00322C626.251 5.40825 626.027 3.87126 624.732 1.52421C622.81 -1.95967 617.469 1.15422 619.394 4.64421Z" fill="#009F89"/>
</g>
</svg>
